X: 1824
T: Bonaparte Crossing The Rhine   #2
R: march
%S: s:2 b:9(5+4)
B: O'Neill's 1850 #1824
Z: Bob Safranek, rjs@gsp.org
N: Compacted via repeats and multiple endings [JC]
N: Compacted by using labels and play order [JC]
P: Play |: A1A2 :: BA2 :|
M: C
L: 1/8
K: Am
"^A"[| (E^F/^G/) | A>B{d}cB AGEG | cdec d2 (e^f/^g/) | a>=ged cAGE |[1 G>^FGA G2 :|[2 A2 A>B A2 ||
"^B"[| (e^f/^g/) | a>=ged cde^f | gega g2 (e^f/^g/) | a>=ged cAGE | G>^FGA G2  |]
